X: 12193
T: Factory Girl, The
R: waltz
M: 3/4
K: Gmajor
B|e2 e2 B2|B<d d2 B2|A3B (3cBA|B2 E2 d2|
e2 e2 B2|B<d d2 B2|A2 G3A|B4 Bd|
e2 e2 B2|B<d d2 B2|A3B (3cBA|B2 E2 F2|
G3A B2|e2 B2 c>B|A2 E2 E2|E4||

